X:1
T:Humming Tune
T:Album for the Young
T:R. Schumann, Op, 68, No. 3
%%score { ( 1 3 ) | 2 }
L:1/8
M:4/4
K:C
V:1 treble nm="Piano" snm="Pno."
V:3 treble 
V:2 treble 
V:1
!p! (!3!e2 d2 c2 d2 | e2 f2 g4) | (!4!f2 g2 e2 f2 | d2 f2 c2 d2) | (e2 d2 c2 d2 | e2 f2 g4) | %6
 (f2 g2 e2 f2 | d4 c2) z2 || (!5!B2 A2 G2 A2 | !5!B2 !4!c2 !5!d4) | (!4!c2 !5!d2 !2!B2 !5!c2 | %11
 A2 c2 G2 A2) | (B2 A2 G2 A2 | B2 c2 d2 e2 | c2 d2 B2 c2) | (([^FA]4 G))(Bcd) |!p! (e2 d2 c2 d2 | %17
 e2 f2 g4) | (f2 g2 e2 f2 | d2 f2 c2 d2) | (e2 d2 c2 d2 | e2 f2 g4) | (f2 g2 e2 f2 | d4 c2) z2 |] %24
V:2
 (!3!CGB,G A,GB,G | !4!CG!3!DG !2!EGEG) | (!3!DGB,G !4!CGA,G | !4!B,GDG !5!A,G!4!B,G) | %4
 (!3!CGB,G A,GB,G | !4!CGDG EGEG) | (DGB,G CGA,G | !5!B,GB,!1!F !4!!2![CE]2) z2 || %8
 (!3!G,2 ^F,2 E,2 F,2 | G,2 A,2 B,4) | (E,2 ^F,2 G,2 E,2 | ^F,2 A,2 E,2 F,2) | (G,2 ^F,2 E,2 F,2 | %13
 G,2 A,2 B,2 C2 | A,2 B,2 G,2 E,2) | (([D,C]4 [G,B,]))G,A,B, | (CGB,G A,GB,G | CGDG EGEG) | %18
 (DGB,G CGA,G | B,GDG A,GB,G) | (CGB,G A,GB,G | CGDG EGEG) | (DGB,G CGA,G | B,GB,F [CE]2) z2 |] %24
V:3
 x8 | x8 | x8 | x8 | x8 | x8 | x8 | x8 || BDAD GDAD | B!1!GcG d!1!G!2!^F!1!G | cGdA BGc!2!G | %11
 ADcD GDAD | BDAD GDAD | BGcG dGeG | cGd^F BGcG | x8 | x8 | x8 | x8 | x8 | x8 | x8 | x8 | x8 |] %24

